src/icons/0122_personHospital_a.svg

<svg data-name="Layer 1" xmlns="http://www.w3.org/2000/svg" viewBox="0 0 48 48"><path d="M36 24a5.6 5.6 0 11-5.6 5.6A5.59 5.59 0 0136 24zm9.8 24v-2.8a8.45 8.45 0 00-8.4-8.4h-2.7a8.45 8.45 0 00-8.4 8.4V48zM33 22.6V9h-5V0H9.1L9 9H4v29h12V28h5v10h6a12.68 12.68 0 013.9-2.6 6.9 6.9 0 01-1.8-2.4H25v-5h3.6a7.76 7.76 0 014.4-5.4zM12 33H8v-5h4zm0-10H8v-5h4zm8.5 0h-4v-5h4zM24 11h-4v4h-3v-4h-4V8h4V4h3v4h4zm5 12h-4v-5h4z"/></svg>

<svg id="Layer_1" data-name="Layer 1" xmlns="http://www.w3.org/2000/svg" viewBox="0 0 48 48"><title>0122_hospitalPerson</title><path d="M36,24a5.6,5.6,0,1,1-5.6,5.6A5.59,5.59,0,0,1,36,24Zm9.8,24V45.2a8.45,8.45,0,0,0-8.4-8.4H34.7a8.45,8.45,0,0,0-8.4,8.4V48ZM33,22.6V9H28V0H9.1L9,9H4V38H16V28h5V38h6a12.68,12.68,0,0,1,3.9-2.6A6.9,6.9,0,0,1,29.1,33H25V28h3.6A7.76,7.76,0,0,1,33,22.6ZM12,33H8V28h4Zm0-10H8V18h4Zm8.5,0h-4V18h4ZM24,11H20v4H17V11H13V8h4V4h3V8h4Zm5,12H25V18h4Z"/></svg>
